Numix-GalliumOS/64/mimetypes/wps-office-dps.svg

<svg xmlns="http://www.w3.org/2000/svg" xmlns:xlink="http://www.w3.org/1999/xlink" width="64px" height="64px" viewBox="0 0 64 64" version="1.1">
<g id="surface1">
<path style=" stroke:none;fill-rule:nonzero;fill:rgb(81.960784%,27.45098%,14.901961%);fill-opacity:1;" d="M 10.671875 0 C 9.296875 0 8 1.355469 8 2.789062 L 8 61.210938 C 8 62.566406 9.375 64 10.671875 64 L 53.328125 64 C 54.625 64 56 62.566406 56 61.210938 L 56 18 L 38 0 Z M 10.671875 0 "/>
<path style=" stroke:none;fill-rule:nonzero;fill:rgb(0%,0%,0%);fill-opacity:0.196078;" d="M 42 18 L 56 32 L 56 18 Z M 42 18 "/>
<path style=" stroke:none;fill-rule:nonzero;fill:rgb(100%,100%,100%);fill-opacity:0.392157;" d="M 38 0 L 55.984375 18 L 40.757812 18 C 39.410156 18 38 16.574219 38 15.226562 Z M 38 0 "/>
<path style=" stroke:none;fill-rule:nonzero;fill:rgb(0%,0%,0%);fill-opacity:0.196078;" d="M 8 48 L 8 61.335938 C 8 62.632812 9.375 64 10.664062 64 L 53.335938 64 C 54.625 64 56 62.632812 56 61.335938 L 56 48 Z M 8 48 "/>
<path style=" stroke:none;fill-rule:nonzero;fill:rgb(100%,100%,100%);fill-opacity:1;" d="M 16 24 L 26 24 L 26 30 L 16 30 Z M 16 24 "/>
<path style=" stroke:none;fill-rule:nonzero;fill:rgb(100%,100%,100%);fill-opacity:1;" d="M 20.453125 60.257812 C 20.515625 60.277344 20.589844 60.277344 20.671875 60.277344 C 20.746094 60.277344 20.820312 60.277344 20.886719 60.277344 C 21.445312 60.277344 21.910156 60.183594 22.28125 59.996094 C 22.664062 59.816406 22.96875 59.5625 23.199219 59.234375 C 23.4375 58.914062 23.601562 58.539062 23.699219 58.09375 C 23.804688 57.644531 23.855469 57.152344 23.855469 56.617188 C 23.855469 56.160156 23.8125 55.707031 23.738281 55.265625 C 23.65625 54.832031 23.519531 54.445312 23.320312 54.109375 C 23.117188 53.773438 22.847656 53.511719 22.5 53.3125 C 22.15625 53.101562 21.714844 53.003906 21.164062 53.003906 C 21.058594 53.003906 20.945312 53.003906 20.8125 53.019531 C 20.671875 53.019531 20.558594 53.027344 20.453125 53.050781 L 20.453125 60.257812 M 26.347656 56.617188 C 26.347656 57.609375 26.199219 58.464844 25.902344 59.167969 C 25.625 59.867188 25.230469 60.429688 24.730469 60.867188 C 24.222656 61.308594 23.625 61.628906 22.917969 61.832031 C 22.230469 62.03125 21.46875 62.128906 20.632812 62.128906 C 20.1875 62.128906 19.761719 62.113281 19.335938 62.0625 C 18.925781 62.03125 18.484375 61.964844 18 61.875 L 18 51.402344 C 18.558594 51.296875 19.082031 51.230469 19.574219 51.199219 C 20.066406 51.164062 20.523438 51.140625 20.953125 51.140625 C 21.753906 51.140625 22.492188 51.246094 23.15625 51.453125 C 23.839844 51.667969 24.402344 51.996094 24.871094 52.445312 C 25.339844 52.878906 25.691406 53.453125 25.945312 54.140625 C 26.207031 54.824219 26.347656 55.652344 26.347656 56.617188 "/>
<path style=" stroke:none;fill-rule:nonzero;fill:rgb(100%,100%,100%);fill-opacity:1;" d="M 31.339844 51.140625 C 32.90625 51.140625 34.121094 51.429688 34.980469 51.996094 C 35.839844 52.550781 36.277344 53.460938 36.277344 54.734375 C 36.277344 56.011719 35.839844 56.945312 34.964844 57.519531 C 34.101562 58.085938 32.875 58.375 31.28125 58.375 L 30.40625 58.375 L 30.40625 61.988281 L 27.953125 61.988281 L 27.953125 51.402344 C 28.191406 51.363281 28.460938 51.320312 28.75 51.28125 C 29.0625 51.25 29.363281 51.222656 29.667969 51.214844 C 29.972656 51.191406 30.273438 51.175781 30.5625 51.167969 C 30.855469 51.148438 31.109375 51.140625 31.339844 51.140625 M 31.617188 53.003906 C 31.472656 53.003906 31.265625 53.003906 31.003906 53.019531 C 30.75 53.019531 30.554688 53.027344 30.40625 53.050781 L 30.40625 56.519531 L 31.398438 56.519531 C 32.183594 56.519531 32.773438 56.378906 33.167969 56.117188 C 33.570312 55.839844 33.765625 55.371094 33.765625 54.714844 C 33.765625 54.09375 33.570312 53.652344 33.167969 53.394531 C 32.785156 53.132812 32.265625 53.003906 31.617188 53.003906 "/>
<path style=" stroke:none;fill-rule:nonzero;fill:rgb(100%,100%,100%);fill-opacity:1;" d="M 41.449219 60.429688 C 41.859375 60.429688 42.203125 60.398438 42.464844 60.332031 C 42.746094 60.25 42.96875 60.144531 43.121094 60.019531 C 43.277344 59.882812 43.386719 59.726562 43.441406 59.570312 C 43.507812 59.390625 43.539062 59.21875 43.539062 59.046875 C 43.539062 58.824219 43.46875 58.628906 43.320312 58.457031 C 43.179688 58.28125 42.992188 58.136719 42.761719 58.003906 C 42.539062 57.863281 42.285156 57.75 42.007812 57.644531 C 41.730469 57.527344 41.449219 57.421875 41.171875 57.332031 C 40.800781 57.21875 40.417969 57.085938 40.015625 56.929688 C 39.621094 56.78125 39.253906 56.59375 38.925781 56.363281 C 38.605469 56.125 38.34375 55.847656 38.128906 55.511719 C 37.917969 55.167969 37.808594 54.742188 37.808594 54.234375 C 37.808594 53.222656 38.179688 52.4375 38.925781 51.871094 C 39.679688 51.304688 40.710938 51.027344 42.03125 51.027344 C 42.785156 51.027344 43.441406 51.101562 44 51.25 C 44.566406 51.394531 45.050781 51.566406 45.433594 51.75 L 44.714844 53.394531 C 44.386719 53.230469 44.015625 53.101562 43.597656 52.976562 C 43.203125 52.863281 42.738281 52.804688 42.203125 52.804688 C 40.910156 52.804688 40.253906 53.214844 40.253906 54.035156 C 40.253906 54.25 40.328125 54.429688 40.457031 54.59375 C 40.589844 54.742188 40.753906 54.878906 40.949219 55.011719 C 41.164062 55.125 41.402344 55.234375 41.648438 55.324219 C 41.917969 55.414062 42.171875 55.503906 42.425781 55.578125 C 42.8125 55.707031 43.210938 55.855469 43.621094 56.011719 C 44.050781 56.167969 44.425781 56.371094 44.777344 56.636719 C 45.132812 56.890625 45.425781 57.21875 45.648438 57.609375 C 45.878906 57.988281 45.992188 58.472656 45.992188 59.0625 C 45.992188 60.070312 45.617188 60.847656 44.851562 61.40625 C 44.113281 61.949219 42.976562 62.21875 41.449219 62.21875 C 40.433594 62.21875 39.613281 62.128906 39.007812 61.941406 C 38.390625 61.742188 37.933594 61.5625 37.628906 61.40625 L 38.34375 59.667969 C 38.703125 59.855469 39.128906 60.03125 39.621094 60.195312 C 40.121094 60.347656 40.738281 60.429688 41.449219 60.429688 "/>
<path style=" stroke:none;fill-rule:nonzero;fill:rgb(100%,100%,100%);fill-opacity:1;" d="M 16 34 L 26 34 L 26 40 L 16 40 Z M 16 34 "/>
<path style=" stroke:none;fill-rule:nonzero;fill:rgb(100%,100%,100%);fill-opacity:1;" d="M 40 21.984375 L 40 30 L 48 30 C 48 25.570312 44.417969 21.984375 40 21.984375 Z M 40 21.984375 "/>
<path style=" stroke:none;fill-rule:nonzero;fill:rgb(100%,100%,100%);fill-opacity:1;" d="M 38.003906 24 C 33.585938 24 30 27.578125 30 32 C 30 36.421875 33.585938 40 38.003906 40 C 42.421875 40 46 36.421875 46 32 L 38.003906 32 Z M 38.003906 24 "/>
</g>
</svg>

<svg xmlns="http://www.w3.org/2000/svg" viewBox="0 0 64 64">
 <g>
  <path d="m 10.672 0 c -1.375 0 -2.672 1.355 -2.672 2.789 l 0 58.42 c 0 1.355 1.375 2.789 2.672 2.789 l 42.656 0 c 1.297 0 2.672 -1.434 2.672 -2.789 l 0 -43.21 l -18 -18 m -27.328 0" style="fill:#d04526;fill-opacity:1;stroke:none;fill-rule:nonzero"/>
  <path d="m 42 18 l 14 14 l 0 -14 m -14 0" style="fill:#000;fill-opacity:0.196;stroke:none;fill-rule:nonzero"/>
  <path d="m 38 0 l 17.984 18 l -15.227 0 c -1.348 0 -2.758 -1.426 -2.758 -2.773 m 0 -15.227" style="fill:#fff;fill-opacity:0.392;stroke:none;fill-rule:nonzero"/>
  <path d="m 8 48 l 0 13.336 c 0 1.297 1.375 2.664 2.664 2.664 l 42.672 0 c 1.289 0 2.664 -1.367 2.664 -2.664 l 0 -13.336 m -48 0" style="fill:#000;fill-opacity:0.196;stroke:none;fill-rule:nonzero"/>
  <path d="m 16 24 l 10 0 l 0 6 l -10 0 m 0 -6" style="fill:#fff;fill-opacity:1;stroke:none;fill-rule:nonzero"/>
  <path d="m 20.453 60.26 c 0.063 0.02 0.137 0.02 0.219 0.02 c 0.074 0 0.148 0 0.215 0 c 0.559 0 1.023 -0.094 1.395 -0.281 c 0.383 -0.18 0.688 -0.434 0.918 -0.762 c 0.238 -0.32 0.402 -0.695 0.5 -1.141 c 0.105 -0.449 0.156 -0.941 0.156 -1.477 c 0 -0.457 -0.043 -0.91 -0.117 -1.352 c -0.082 -0.434 -0.219 -0.82 -0.418 -1.156 c -0.203 -0.336 -0.473 -0.598 -0.82 -0.797 c -0.344 -0.211 -0.785 -0.309 -1.336 -0.309 c -0.105 0 -0.219 0 -0.352 0.016 c -0.141 0 -0.254 0.008 -0.359 0.031 l 0 7.207 m 5.895 -3.641 c 0 0.992 -0.148 1.848 -0.445 2.551 c -0.277 0.699 -0.672 1.262 -1.172 1.699 c -0.508 0.441 -1.105 0.762 -1.813 0.965 c -0.688 0.199 -1.449 0.297 -2.285 0.297 c -0.445 0 -0.871 -0.016 -1.297 -0.066 c -0.41 -0.031 -0.852 -0.098 -1.336 -0.188 l 0 -10.473 c 0.559 -0.105 1.082 -0.172 1.574 -0.203 c 0.492 -0.035 0.949 -0.059 1.379 -0.059 c 0.801 0 1.539 0.105 2.203 0.313 c 0.684 0.215 1.246 0.543 1.715 0.992 c 0.469 0.434 0.82 1.01 1.074 1.695 c 0.262 0.684 0.402 1.512 0.402 2.477" style="fill:#fff;fill-opacity:1;stroke:none;fill-rule:nonzero"/>
  <path d="m 31.34 51.14 c 1.566 0 2.781 0.289 3.641 0.855 c 0.859 0.555 1.297 1.465 1.297 2.738 c 0 1.277 -0.438 2.211 -1.313 2.785 c -0.863 0.566 -2.09 0.855 -3.684 0.855 l -0.875 0 l 0 3.613 l -2.453 0 l 0 -10.586 c 0.238 -0.039 0.508 -0.082 0.797 -0.121 c 0.313 -0.031 0.613 -0.059 0.918 -0.066 c 0.305 -0.023 0.605 -0.039 0.895 -0.047 c 0.293 -0.02 0.547 -0.027 0.777 -0.027 m 0.277 1.863 c -0.145 0 -0.352 0 -0.613 0.016 c -0.254 0 -0.449 0.008 -0.598 0.031 l 0 3.469 l 0.992 0 c 0.785 0 1.375 -0.141 1.77 -0.402 c 0.402 -0.277 0.598 -0.746 0.598 -1.402 c 0 -0.621 -0.195 -1.063 -0.598 -1.32 c -0.383 -0.262 -0.902 -0.391 -1.551 -0.391" style="fill:#fff;fill-opacity:1;stroke:none;fill-rule:nonzero"/>
  <path d="m 41.45 60.43 c 0.41 0 0.754 -0.031 1.016 -0.098 c 0.281 -0.082 0.504 -0.188 0.656 -0.313 c 0.156 -0.137 0.266 -0.293 0.32 -0.449 c 0.066 -0.18 0.098 -0.352 0.098 -0.523 c 0 -0.223 -0.07 -0.418 -0.219 -0.59 c -0.141 -0.176 -0.328 -0.32 -0.559 -0.453 c -0.223 -0.141 -0.477 -0.254 -0.754 -0.359 c -0.277 -0.117 -0.559 -0.223 -0.836 -0.313 c -0.371 -0.113 -0.754 -0.246 -1.156 -0.402 c -0.395 -0.148 -0.762 -0.336 -1.09 -0.566 c -0.32 -0.238 -0.582 -0.516 -0.797 -0.852 c -0.211 -0.344 -0.32 -0.77 -0.32 -1.277 c 0 -1.012 0.371 -1.797 1.117 -2.363 c 0.754 -0.566 1.785 -0.844 3.105 -0.844 c 0.754 0 1.41 0.074 1.969 0.223 c 0.566 0.145 1.051 0.316 1.434 0.5 l -0.719 1.645 c -0.328 -0.164 -0.699 -0.293 -1.117 -0.418 c -0.395 -0.113 -0.859 -0.172 -1.395 -0.172 c -1.293 0 -1.949 0.41 -1.949 1.23 c 0 0.215 0.074 0.395 0.203 0.559 c 0.133 0.148 0.297 0.285 0.492 0.418 c 0.215 0.113 0.453 0.223 0.699 0.313 c 0.27 0.09 0.523 0.18 0.777 0.254 c 0.387 0.129 0.785 0.277 1.195 0.434 c 0.43 0.156 0.805 0.359 1.156 0.625 c 0.355 0.254 0.648 0.582 0.871 0.973 c 0.23 0.379 0.344 0.863 0.344 1.453 c 0 1.01 -0.375 1.785 -1.141 2.344 c -0.738 0.543 -1.875 0.813 -3.402 0.813 c -1.016 0 -1.836 -0.09 -2.441 -0.277 c -0.617 -0.199 -1.074 -0.379 -1.379 -0.535 l 0.715 -1.738 c 0.359 0.188 0.785 0.363 1.277 0.527 c 0.5 0.152 1.117 0.234 1.828 0.234" style="fill:#fff;fill-opacity:1;stroke:none;fill-rule:nonzero"/>
  <path d="m 16 34 l 10 0 l 0 6 l -10 0 m 0 -6" style="fill:#fff;fill-opacity:1;stroke:none;fill-rule:nonzero"/>
  <path d="m 40 21.984 l 0 8.02 l 8 0 c 0 -4.43 -3.582 -8.02 -8 -8.02 m 0 0" style="fill:#fff;fill-opacity:1;stroke:none;fill-rule:nonzero"/>
  <path d="m 38 24 c -4.418 0 -8 3.578 -8 8 c 0 4.422 3.586 8 8 8 c 4.418 0 7.996 -3.578 7.996 -8 l -7.996 0 m 0 -8" style="fill:#fff;fill-opacity:1;stroke:none;fill-rule:nonzero"/>
 </g>
</svg>
